design-system/icons/bedtime_off--labs-icons.svg

<svg width="21" height="20" viewBox="0 0 21 20" fill="none" xmlns="http://www.w3.org/2000/svg">
<g clip-path="url(#clip0_234_293)">
<mask id="mask0_234_293" style="mask-type:alpha" maskUnits="userSpaceOnUse" x="0" y="0" width="25" height="24">
<rect x="0.916748" width="23.0833" height="23.0833" fill="currentColor"/>
</mask>
<g mask="url(#mask0_234_293)">
<path d="M12.0416 8.87501C12.7916 9.62501 13.6805 10.2014 14.7083 10.6042C15.736 11.007 16.8333 11.2083 17.9999 11.2083C18.4444 11.2083 18.7916 11.3889 19.0416 11.75C19.2916 12.1111 19.3402 12.5 19.1874 12.9167C19.0763 13.2361 18.9305 13.559 18.7499 13.8854C18.5694 14.2118 18.361 14.5417 18.1249 14.875C17.9027 15.1667 17.6076 15.3229 17.2395 15.3438C16.8714 15.3646 16.5485 15.2361 16.2708 14.9583L5.93742 4.62501C5.67353 4.36112 5.54853 4.04515 5.56242 3.67709C5.57631 3.30904 5.72909 3.0139 6.02075 2.79168C6.27075 2.59723 6.53811 2.42015 6.82284 2.26043C7.10756 2.10071 7.43047 1.94446 7.79159 1.79168C8.23603 1.59723 8.65617 1.62154 9.052 1.86459C9.44783 2.10765 9.6527 2.4514 9.66659 2.89584C9.69436 4.09029 9.90964 5.19793 10.3124 6.21876C10.7152 7.23959 11.2916 8.12501 12.0416 8.87501ZM15.7499 19.9167L13.9166 18.1042C13.4583 18.2708 12.986 18.3958 12.4999 18.4792C12.0138 18.5625 11.5138 18.6042 10.9999 18.6042C9.80547 18.6042 8.68047 18.375 7.62492 17.9167C6.56936 17.4583 5.64922 16.8368 4.8645 16.0521C4.07978 15.2674 3.45825 14.3472 2.99992 13.2917C2.54159 12.2361 2.31242 11.1111 2.31242 9.91668C2.31242 9.40279 2.35409 8.90279 2.43742 8.41668C2.52075 7.93057 2.64575 7.45834 2.81242 7.00001L1.04159 5.22918C0.819363 5.00696 0.708252 4.74307 0.708252 4.43751C0.708252 4.13196 0.819363 3.86807 1.04159 3.64584C1.26381 3.42362 1.5277 3.31251 1.83325 3.31251C2.13881 3.31251 2.4027 3.42362 2.62492 3.64584L17.2916 18.3542C17.4999 18.5764 17.6041 18.8368 17.6041 19.1354C17.6041 19.434 17.4999 19.6875 17.2916 19.8958C17.0833 20.1042 16.8263 20.2118 16.5208 20.2188C16.2152 20.2257 15.9583 20.125 15.7499 19.9167Z" fill="currentColor"/>
</g>
</g>
<defs>
<clipPath id="clip0_234_293">
<rect width="20" height="20" fill="white" transform="translate(0.916748)"/>
</clipPath>
</defs>
</svg>

<svg xmlns="http://www.w3.org/2000/svg" width="21" height="20" fill="none" viewBox="0 0 21 20"><g clip-path="url(#a)"><mask id="b" width="25" height="24" x="0" y="0" maskUnits="userSpaceOnUse" style="mask-type:alpha"><path fill="currentColor" d="M.917 0H24v23.083H.917z"/></mask><g mask="url(#b)"><path fill="currentColor" d="M12.042 8.875a7.7 7.7 0 0 0 2.666 1.73 8.9 8.9 0 0 0 3.292.603q.667 0 1.042.542.375.541.145 1.167-.166.48-.437.968-.27.49-.625.99a1.15 1.15 0 0 1-.886.469q-.551.03-.968-.386L5.937 4.625a1.22 1.22 0 0 1-.375-.948q.021-.552.459-.885.375-.292.802-.532t.969-.468q.666-.292 1.26.073.593.364.615 1.03.041 1.793.645 3.324a7.7 7.7 0 0 0 1.73 2.656m3.708 11.042-1.833-1.813q-.688.25-1.417.375a9 9 0 0 1-1.5.125q-1.793 0-3.375-.687a8.8 8.8 0 0 1-2.76-1.865A8.8 8.8 0 0 1 3 13.292a8.4 8.4 0 0 1-.688-3.375q0-.771.125-1.5.126-.73.375-1.417l-1.77-1.77a1.08 1.08 0 0 1-.334-.792q0-.459.334-.792.333-.333.791-.333.459 0 .792.333l14.667 14.708q.312.334.312.781 0 .448-.312.76a1.08 1.08 0 0 1-.771.324 1.01 1.01 0 0 1-.771-.302"/></g></g><defs><clipPath id="a"><path fill="#fff" d="M.917 0h20v20h-20z"/></clipPath></defs></svg>
